svgs/sharp-light/flashlight.svg

<svg xmlns="http://www.w3.org/2000/svg" viewBox="0 0 640 512"><!--! Font Awesome Pro 6.6.0 by @fontawesome - https://fontawesome.com License - https://fontawesome.com/license (Commercial License) Copyright 2024 Fonticons, Inc. --><path d="M401.8 325.4l-8.1-5.4-9.7 0L32 320l0-128 352 0 9.7 0 8.1-5.4 31.5-21c24-16 50.8-27.1 78.7-32.9l0 246.7c-28-5.8-54.7-16.9-78.7-32.9l-31.5-21zM544 383.6l0-255.2c4.5-.3 9-.4 13.5-.4l50.5 0 0 256-50.5 0c-4.5 0-9-.1-13.5-.4zM0 352l32 0 352 0 31.5 21c42.1 28 91.5 43 142 43l50.5 0 32 0 0-32 0-256 0-32-32 0-50.5 0c-50.5 0-100 15-142 43L384 160 32 160 0 160l0 32L0 320l0 32zM224 240l0 32 16 0 64 0 16 0 0-32-16 0-64 0-16 0z"/></svg>

<svg xmlns="http://www.w3.org/2000/svg" viewBox="0 0 640 512"><!--! Font Awesome Pro 6.4.2 by @fontawesome - https://fontawesome.com License - https://fontawesome.com/license (Commercial License) Copyright 2023 Fonticons, Inc. --><path d="M401.8 325.4l-8.1-5.4H384 32V192H384h9.7l8.1-5.4 31.5-21c24-16 50.8-27.1 78.7-32.9V379.3c-28-5.8-54.7-16.9-78.7-32.9l-31.5-21zM544 383.6V128.4c4.5-.3 9-.4 13.5-.4H608V384H557.5c-4.5 0-9-.1-13.5-.4zM0 352H32 384l31.5 21c42.1 28 91.5 43 142 43H608h32V384 128 96H608 557.5c-50.5 0-100 15-142 43L384 160H32 0v32V320v32zM224 240v32h16 64 16V240H304 240 224z"/></svg>
